X:1
T:Jordanhill
M:6/8
L:1/8
C:Jimmy Blair
S:Gary Blair <GaryBlair:compuserve.com> scots-l 2000-02-01
R:Jig
K:A
d \
| gfe dcB | cAA A2 e \
|: A>BA a>gf | e>dc c2 e | d>cB B2d | c>BA A2e \
| A>BA a>gf | e>dc c2e | d>cB E>ed |1 cAA A2e :|2 cAA A2e |
| faf def | eae cde | dfd Bcd | cAA Ace \
| faf def | eae cde | dfd Bed | cAA A2e |
| faf def | eae cde | dfd Bcd | cAA Ace \
| faf def | eae cde | gfe dcB | cAA A2e |]

